;FLAVOR:Marlin
;TIME:13883
;Filament used: 9.33694m
;Layer height: 0.2
;MINX:70.2
;MINY:66.999
;MINZ:0.2
;MAXX:148.293
;MAXY:149.515
;MAXZ:30.6
;Generated with Cura_SteamEngine 4.8.0
M140 S60
M105
M190 S60
M104 S205
M105
M109 S205
M82 ;absolute extrusion mode
; Ender 3 Custom Start G-code
G92 E0 ; Reset Extruder
G28 ; Home all axes
G1 Z2.0 F3000 ; Move Z Axis up little to prevent scratching of Heat Bed
G1 X0.1 Y20 Z0.3 F5000.0 ; Move to start position
G1 X0.1 Y200.0 Z0.3 F1500.0 E15 ; Draw the first line
G1 X0.4 Y200.0 Z0.3 F5000.0 ; Move to side a little
G1 X0.4 Y20 Z0.3 F1500.0 E30 ; Draw the second line
G92 E0 ; Reset Extruder
G1 Z2.0 F3000 ; Move Z Axis up little to prevent scratching of Heat Bed
G1 X5 Y20 Z0.3 F5000.0 ; Move over to prevent blob squish
G92 E0
G92 E0
G1 F1500 E-6
;LAYER_COUNT:153
;LAYER:0
M107
G0 F6000 X97.601 Y71.987 Z0.2
;TYPE:SKIRT
G1 F1500 E0
G1 F1200 X98.157 Y71.232 E0.03119
G1 X98.917 Y70.381 E0.06913
G1 X99.031 Y70.266 E0.07452
G1 X99.719 Y69.629 E0.10571
G1 X100.459 Y69.052 E0.13692
G1 X101.245 Y68.541 E0.1681
G1 X102.072 Y68.098 E0.1993
G1 X102.934 Y67.728 E0.2305
G1 X103.824 Y67.432 E0.2617
G1 X104.736 Y67.214 E0.29288
G1 X105.663 Y67.073 E0.32407
G1 X106.474 Y67.016 E0.35111
G1 X106.858 Y67.006 E0.36389
G1 X107.401 Y67 E0.38195
G1 X110.455 Y67 E0.48353
G1 X111.43 Y67.003 E0.51595
G1 X111.925 Y67 E0.53242
G1 X132.435 Y66.999 E1.21458
G1 X133.644 Y67.002 E1.2548
G1 X133.856 Y67 E1.26185
G1 X136.611 Y67.001 E1.35348
G1 X137.313 Y67.011 E1.37683
G1 X138.249 Y67.064 E1.40801
G1 X139.177 Y67.197 E1.43919
G1 X140.091 Y67.409 E1.4704
G1 X140.984 Y67.697 E1.50161
G1 X141.848 Y68.061 E1.53279
G1 X142.679 Y68.497 E1.564
G1 X143.469 Y69.002 E1.59519
G1 X144.213 Y69.572 E1.62636
G1 X144.934 Y70.232 E1.65887
G1 X145.046 Y70.344 E1.66414
G1 X145.68 Y71.035 E1.69533
G1 X146.254 Y71.777 E1.72653
G1 X146.761 Y72.566 E1.75772
G1 X147.2 Y73.394 E1.78889
G1 X147.567 Y74.258 E1.82012
G1 X147.859 Y75.149 E1.8513
G1 X148.073 Y76.062 E1.88249
G1 X148.21 Y76.99 E1.91369
G1 X148.261 Y77.724 E1.93816
G1 X148.275 Y78.164 E1.95281
G1 X148.279 Y78.493 E1.96375
G1 X148.293 Y82.983 E2.11309
G1 X148.282 Y83.879 E2.14289
G1 X148.273 Y84.185 E2.15307
G1 X148.23 Y85.176 E2.18606
G1 X148.172 Y86.194 E2.21998
G1 X148.09 Y89.131 E2.3177
G1 X148.047 Y90.122 E2.35069
G1 X147.989 Y91.14 E2.38461
G1 X147.906 Y94.155 E2.48492
G1 X147.863 Y95.132 E2.51745
G1 X147.807 Y96.114 E2.55017
G1 X147.723 Y99.118 E2.65012
G1 X147.689 Y99.92 E2.67682
G1 X147.616 Y102.46 E2.76133
G1 X147.616 Y105.018 E2.84641
G1 X147.672 Y107.174 E2.91814
G1 X147.685 Y107.53 E2.92999
G1 X147.739 Y108.643 E2.96706
G1 X147.748 Y108.864 E2.97441
G1 X147.761 Y109.326 E2.98978
G1 X147.747 Y110.263 E3.02095
G1 X147.654 Y111.197 E3.05217
G1 X147.481 Y112.118 E3.08334
G1 X147.292 Y112.827 E3.10774
G1 X147.181 Y113.193 E3.12046
G1 X146.87 Y114.079 E3.1517
G1 X146.486 Y114.934 E3.18287
G1 X145.807 Y116.103 E3.22783
G1 X145.775 Y116.151 E3.22975
G1 X145.353 Y116.741 E3.25388
G1 X144.913 Y117.313 E3.27788
G1 X144.691 Y117.593 E3.28977
G1 X144.257 Y118.127 E3.31265
G1 X143.635 Y118.829 E3.34385
G1 X143.188 Y119.266 E3.36464
G1 X142.685 Y119.731 E3.38742
G1 X142.43 Y119.96 E3.39882
G1 X142.043 Y120.296 E3.41587
G1 X141.309 Y120.88 E3.44707
G1 X140.798 Y121.231 E3.46769
G1 X140.401 Y121.486 E3.48338
G1 X138.676 Y122.567 E3.55109
G1 X136.564 Y123.976 E3.63553
G1 X134.505 Y125.436 E3.71948
G1 X132.513 Y126.933 E3.80236
G1 X130.542 Y128.504 E3.88619
G1 X128.616 Y130.13 E3.97003
G1 X126.74 Y131.809 E4.05376
G1 X124.912 Y133.538 E4.13745
G1 X123.142 Y135.313 E4.22082
G1 X121.398 Y137.16 E4.30531
G1 X119.736 Y139.026 E4.38843
G1 X118.11 Y140.956 E4.47236
G1 X116.532 Y142.943 E4.55676
G1 X115.357 Y144.497 E4.62155
G1 X115.033 Y144.935 E4.63967
G1 X114.444 Y145.665 E4.67087
G1 X113.969 Y146.17 E4.69393
G1 X113.856 Y146.283 E4.69925
G1 X113.165 Y146.917 E4.73044
G1 X112.423 Y147.491 E4.76164
G1 X111.634 Y147.998 E4.79283
G1 X110.806 Y148.437 E4.824
G1 X109.942 Y148.804 E4.85522
G1 X109.051 Y149.096 E4.88641
G1 X108.138 Y149.31 E4.9176
G1 X107.21 Y149.447 E4.9488
G1 X106.449 Y149.499 E4.97417
G1 X106.064 Y149.509 E4.98698
G1 X105.52 Y149.515 E5.00507
G1 X81.861 Y149.515 E5.79197
G1 X81.196 Y149.505 E5.81409
G1 X80.259 Y149.451 E5.84531
G1 X79.331 Y149.317 E5.8765
G1 X78.417 Y149.105 E5.9077
G1 X77.525 Y148.816 E5.93889
G1 X76.661 Y148.451 E5.97009
G1 X75.831 Y148.015 E6.00127
G1 X75.188 Y147.611 E6.02653
G1 X75.129 Y147.571 E6.0289
G1 X74.523 Y147.129 E6.05384
G1 X74.431 Y147.057 E6.05773
G1 X73.717 Y146.448 E6.08894
G1 X73.059 Y145.78 E6.12013
G1 X72.459 Y145.059 E6.15133
G1 X71.923 Y144.289 E6.18253
G1 X71.455 Y143.477 E6.2137
G1 X71.057 Y142.627 E6.24492
G1 X70.733 Y141.747 E6.27611
G1 X70.486 Y140.842 E6.30731
G1 X70.316 Y139.92 E6.33849
G1 X70.216 Y138.765 E6.37705
G1 X70.206 Y138.368 E6.39026
G1 X70.2 Y137.796 E6.40929
G1 X70.201 Y116.764 E7.10881
G1 X70.211 Y116.066 E7.13203
G1 X70.257 Y115.21 E7.16054
G1 X70.272 Y115.048 E7.16595
G1 X70.31 Y114.701 E7.17756
G1 X70.379 Y114.147 E7.19613
G1 X70.494 Y113.318 E7.22397
G1 X70.596 Y112.644 E7.24664
G1 X70.776 Y111.724 E7.27782
G1 X71.033 Y110.822 E7.30902
G1 X71.265 Y110.19 E7.33141
G1 X71.423 Y109.798 E7.34547
G1 X71.787 Y108.932 E7.37671
G1 X72.086 Y108.246 E7.4016
G1 X72.497 Y107.403 E7.43279
G1 X72.979 Y106.598 E7.464
G1 X73.439 Y105.95 E7.49043
G1 X74.013 Y105.201 E7.52182
G1 X74.328 Y104.802 E7.53872
G1 X74.831 Y104.184 E7.56523
G1 X75.665 Y103.273 E7.60631
G1 X76.341 Y102.614 E7.63771
G1 X77.258 Y101.745 E7.67973
G1 X79.035 Y99.962 E7.76345
G1 X80.744 Y98.148 E7.84634
G1 X82.433 Y96.25 E7.93085
G1 X84.041 Y94.336 E8.01399
G1 X85.613 Y92.358 E8.09803
G1 X87.121 Y90.342 E8.18176
G1 X88.562 Y88.298 E8.26494
G1 X89.973 Y86.171 E8.34984
G1 X91.281 Y84.076 E8.43198
G1 X92.574 Y81.864 E8.5172
G1 X93.774 Y79.676 E8.6002
G1 X94.915 Y77.443 E8.6836
G1 X96.012 Y75.14 E8.76845
G1 X96.691 Y73.625 E8.82367
G1 X97.111 Y72.787 E8.85484
G1 X97.601 Y71.987 E8.88605
G0 F6000 X97.952 Y72.182
G1 F1200 X98.5 Y71.443 E8.91665
G1 X99.201 Y70.662 E8.95155
G1 X99.315 Y70.547 E8.95694
G1 X99.991 Y69.922 E8.98756
G1 X100.719 Y69.358 E9.01819
G1 X101.492 Y68.86 E9.04877
G1 X102.307 Y68.43 E9.07942
G1 X103.155 Y68.072 E9.11004
G1 X104.031 Y67.79 E9.14064
G1 X104.929 Y67.584 E9.17129
G1 X105.841 Y67.458 E9.20191
G1 X106.487 Y67.416 E9.22344
G1 X106.862 Y67.406 E9.23592
G1 X107.401 Y67.4 E9.25385
G1 X110.454 Y67.4 E9.35539
G1 X111.432 Y67.403 E9.38792
G1 X111.925 Y67.4 E9.40431
G1 X132.434 Y67.399 E10.08645
G1 X133.647 Y67.402 E10.12679
G1 X133.86 Y67.4 E10.13388
G1 X136.605 Y67.401 E10.22518
G1 X137.307 Y67.411 E10.24853
G1 X138.226 Y67.464 E10.27914
G1 X139.137 Y67.597 E10.30976
G1 X140.033 Y67.808 E10.34038
G1 X140.908 Y68.096 E10.37102
G1 X141.754 Y68.459 E10.40164
G1 X142.565 Y68.894 E10.43225
G1 X143.336 Y69.398 E10.46288
G1 X144.06 Y69.966 E10.49349
G1 X144.651 Y70.515 E10.52032
G1 X144.763 Y70.627 E10.52559
G1 X145.385 Y71.305 E10.55619
G1 X145.946 Y72.035 E10.58681
G1 X146.442 Y72.811 E10.61744
G1 X146.868 Y73.627 E10.64806
G1 X147.222 Y74.477 E10.67868
G1 X147.5 Y75.355 E10.70932
G1 X147.702 Y76.253 E10.73993
G1 X147.825 Y77.166 E10.77057
G1 X147.861 Y77.739 E10.78967
G1 X147.875 Y78.17 E10.80401
G1 X147.879 Y78.494 E10.81479
G1 X147.893 Y82.984 E10.96412
G1 X147.882 Y83.873 E10.99369
G1 X147.874 Y84.169 E11.00354
G1 X147.831 Y85.154 E11.03634
G1 X147.772 Y86.197 E11.07108
G1 X147.691 Y89.115 E11.16817
G1 X147.648 Y90.1 E11.20096
G1 X147.589 Y91.143 E11.23571
G1 X147.517 Y93.709 E11.32109
G1 X147.506 Y94.137 E11.33533
G1 X147.464 Y95.109 E11.36769
G1 X147.407 Y96.114 E11.40117
G1 X147.323 Y99.101 E11.50056
G1 X147.293 Y99.797 E11.52373
G1 X147.216 Y102.484 E11.61313
G1 X147.216 Y105.029 E11.69778
G1 X147.272 Y107.198 E11.76995
G1 X147.283 Y107.48 E11.77933
G1 X147.34 Y108.662 E11.81869
G1 X147.361 Y109.337 E11.84115
G1 X147.347 Y110.257 E11.87176
G1 X147.253 Y111.173 E11.90238
G1 X147.08 Y112.077 E11.93299
G1 X146.909 Y112.711 E11.95483
G1 X146.798 Y113.077 E11.96756
G1 X146.493 Y113.946 E11.99819
G1 X146.113 Y114.785 E12.02882
G1 X145.474 Y115.881 E12.07102
G1 X145.442 Y115.929 E12.07294
G1 X145.035 Y116.497 E12.09618
G1 X144.598 Y117.066 E12.12004
G1 X144.381 Y117.34 E12.13166
G1 X143.947 Y117.874 E12.15455
G1 X143.336 Y118.563 E12.18518
G1 X142.917 Y118.973 E12.20468
G1 X142.414 Y119.438 E12.22746
G1 X142.167 Y119.658 E12.23846
G1 X141.78 Y119.994 E12.25551
G1 X141.06 Y120.567 E12.28611
G1 X140.581 Y120.895 E12.30542
G1 X140.189 Y121.147 E12.32092
G1 X138.447 Y122.238 E12.38929
G1 X136.339 Y123.644 E12.47356
G1 X134.296 Y125.093 E12.55687
G1 X132.247 Y126.633 E12.64212
G1 X130.28 Y128.201 E12.72579
G1 X128.375 Y129.81 E12.80873
G1 X126.444 Y131.538 E12.89491
G1 X124.655 Y133.231 E12.97683
G1 X122.85 Y135.04 E13.06183
G1 X121.109 Y136.884 E13.14618
G1 X119.433 Y138.766 E13.23
G1 X117.79 Y140.715 E13.31478
G1 X116.22 Y142.693 E13.39878
G1 X115.102 Y144.171 E13.46041
G1 X114.712 Y144.698 E13.48222
G1 X114.132 Y145.413 E13.51284
G1 X113.686 Y145.887 E13.53449
G1 X113.573 Y146 E13.5398
G1 X112.895 Y146.622 E13.57041
G1 X112.165 Y147.183 E13.60103
G1 X111.389 Y147.679 E13.63166
G1 X110.573 Y148.105 E13.66227
G1 X109.723 Y148.459 E13.6929
G1 X108.845 Y148.737 E13.72353
G1 X107.947 Y148.939 E13.75414
G1 X107.034 Y149.062 E13.78479
G1 X106.436 Y149.099 E13.80471
G1 X106.059 Y149.109 E13.81726
G1 X105.52 Y149.115 E13.83518
G1 X81.867 Y149.115 E14.62189
G1 X81.202 Y149.105 E14.64401
G1 X80.283 Y149.051 E14.67463
G1 X79.372 Y148.918 E14.70525
G1 X78.476 Y148.706 E14.73587
G1 X77.601 Y148.417 E14.76652
G1 X76.756 Y148.053 E14.79712
G1 X75.945 Y147.618 E14.82773
G1 X75.413 Y147.28 E14.84869
G1 X75.354 Y147.24 E14.85107
G1 X74.769 Y146.814 E14.87513
G1 X74.677 Y146.742 E14.87902
G1 X73.977 Y146.143 E14.90966
G1 X73.332 Y145.486 E14.94029
G1 X72.747 Y144.776 E14.97088
G1 X72.225 Y144.018 E15.00149
G1 X71.771 Y143.217 E15.03212
G1 X71.388 Y142.379 E15.06276
G1 X71.079 Y141.512 E15.09338
G1 X70.847 Y140.621 E15.124
G1 X70.692 Y139.714 E15.1546
G1 X70.616 Y138.752 E15.1867
G1 X70.606 Y138.364 E15.19961
G1 X70.6 Y137.796 E15.2185
G1 X70.601 Y116.77 E15.91783
G1 X70.611 Y116.072 E15.94105
G1 X70.655 Y115.247 E15.96852
G1 X70.67 Y115.085 E15.97394
G1 X70.706 Y114.75 E15.98514
G1 X70.776 Y114.201 E16.00355
G1 X70.889 Y113.378 E16.03118
G1 X70.991 Y112.704 E16.05385
G1 X71.168 Y111.8 E16.08449
G1 X71.423 Y110.916 E16.11509
G1 X71.636 Y110.339 E16.13555
G1 X71.792 Y109.953 E16.1494
G1 X72.154 Y109.092 E16.18046
G1 X72.453 Y108.406 E16.20535
G1 X72.857 Y107.579 E16.23596
G1 X73.331 Y106.789 E16.26661
G1 X73.757 Y106.193 E16.29097
G1 X74.444 Y105.299 E16.32847
G1 X74.731 Y104.939 E16.34378
G1 X75.141 Y104.437 E16.36534
G1 X75.945 Y103.559 E16.40494
G1 X76.616 Y102.904 E16.43613
G1 X77.533 Y102.034 E16.47817
G1 X79.32 Y100.242 E16.56234
G1 X81.051 Y98.405 E16.64629
G1 X82.722 Y96.527 E16.7299
G1 X84.359 Y94.58 E16.81451
G1 X85.93 Y92.601 E16.89855
G1 X87.44 Y90.583 E16.98237
G1 X88.906 Y88.503 E17.06701
G1 X90.287 Y86.423 E17.15005
G1 X91.647 Y84.243 E17.23551
G1 X92.912 Y82.079 E17.31888
G1 X94.124 Y79.871 E17.40266
G1 X95.275 Y77.618 E17.48681
G1 X96.38 Y75.297 E17.5723
G1 X97.056 Y73.789 E17.62727
G1 X97.469 Y72.966 E17.6579
G1 X97.952 Y72.182 E17.68852
G0 F6000 X98.302 Y72.378
G1 F1200 X98.844 Y71.655 E17.71858
G1 X99.485 Y70.944 E17.75042
G1 X99.599 Y70.829 E17.7558
G1 X100.263 Y70.216 E17.78586
G1 X100.978 Y69.665 E17.81588
G1 X101.739 Y69.179 E17.84591
G1 X102.54 Y68.762 E17.87595
G1 X103.375 Y68.418 E17.90599
G1 X104.237 Y68.149 E17.93602
G1 X105.12 Y67.957 E17.96608
G1 X106.016 Y67.844 E17.99611
G1 X106.501 Y67.816 E18.01227
G1 X106.867 Y67.806 E18.02445
G1 X107.401 Y67.8 E18.04221
G1 X110.453 Y67.8 E18.14372
G1 X111.434 Y67.803 E18.17635
G1 X111.926 Y67.8 E18.19271
G1 X132.434 Y67.799 E18.87481
G1 X133.65 Y67.802 E18.91526
G1 X133.863 Y67.8 E18.92234
G1 X136.599 Y67.801 E19.01334
G1 X137.301 Y67.811 E19.03669
G1 X138.203 Y67.864 E19.06674
G1 X139.096 Y67.996 E19.09677
G1 X139.974 Y68.207 E19.1268
G1 X140.83 Y68.495 E19.15684
G1 X141.658 Y68.857 E19.1869
G1 X142.45 Y69.291 E19.21694
G1 X143.2 Y69.794 E19.24697
G1 X143.903 Y70.36 E19.27699
G1 X144.368 Y70.798 E19.29824
G1 X144.48 Y70.91 E19.3035
G1 X145.09 Y71.576 E19.33354
G1 X145.639 Y72.293 E19.36358
G1 X146.121 Y73.057 E19.39362
G1 X146.535 Y73.86 E19.42367
G1 X146.875 Y74.696 E19.45369
G1 X147.141 Y75.559 E19.48372
G1 X147.329 Y76.442 E19.51375
G1 X147.461 Y77.753 E19.55758
G1 X147.475 Y78.177 E19.57169
G1 X147.479 Y78.495 E19.58226
G1 X147.493 Y82.985 E19.7316
G1 X147.482 Y83.867 E19.76094
G1 X147.474 Y84.152 E19.77042
G1 X147.432 Y85.131 E19.80301
G1 X147.372 Y86.197 E19.83853
G1 X147.291 Y89.098 E19.93505
G1 X147.249 Y90.077 E19.96764
G1 X147.189 Y91.143 E20.00315
G1 X147.117 Y93.693 E20.088
G1 X147.107 Y94.12 E20.10221
G1 X147.065 Y95.086 E20.13437
G1 X147.006 Y96.115 E20.16865
G1 X146.924 Y99.084 E20.26744
G1 X146.891 Y99.864 E20.2934
G1 X146.816 Y102.472 E20.38018
G1 X146.816 Y105.001 E20.46429
G1 X146.874 Y107.224 E20.53826
G1 X146.888 Y107.603 E20.55087
G1 X146.94 Y108.682 E20.5868
G1 X146.948 Y108.886 E20.59359
G1 X146.961 Y109.348 E20.60896
G1 X146.946 Y110.251 E20.639
G1 X146.852 Y111.149 E20.66903
G1 X146.678 Y112.036 E20.6991
G1 X146.526 Y112.595 E20.71836
G1 X146.415 Y112.961 E20.73108
G1 X146.115 Y113.813 E20.76113
G1 X145.741 Y114.635 E20.79116
G1 X145.141 Y115.659 E20.83064
G1 X145.109 Y115.707 E20.83256
G1 X144.718 Y116.254 E20.85492
G1 X144.284 Y116.819 E20.87862
G1 X144.07 Y117.088 E20.89005
G1 X143.636 Y117.622 E20.91294
G1 X143.036 Y118.297 E20.94297
G1 X142.645 Y118.679 E20.96116
G1 X142.142 Y119.144 E20.98394
G1 X141.905 Y119.356 E20.99451
G1 X141.518 Y119.692 E21.01156
G1 X140.811 Y120.253 E21.04158
G1 X140.364 Y120.559 E21.0596
G1 X139.976 Y120.808 E21.07493
G1 X138.234 Y121.899 E21.14329
G1 X136.132 Y123.301 E21.22733
G1 X134.047 Y124.78 E21.31235
G1 X132.025 Y126.299 E21.39647
G1 X130.019 Y127.899 E21.48181
G1 X128.096 Y129.523 E21.56553
G1 X126.204 Y131.215 E21.64995
G1 X124.327 Y132.991 E21.7359
G1 X122.577 Y134.746 E21.81833
G1 X120.818 Y136.609 E21.90355
G1 X119.129 Y138.505 E21.988
G1 X117.483 Y140.458 E22.07295
G1 X115.912 Y142.437 E22.15699
G1 X114.719 Y144.015 E22.22279
G1 X114.39 Y144.46 E22.24119
G1 X113.821 Y145.161 E22.27122
G1 X113.403 Y145.604 E22.29148
G1 X113.29 Y145.717 E22.2968
G1 X112.624 Y146.327 E22.32683
G1 X111.907 Y146.876 E22.35687
G1 X111.143 Y147.358 E22.38692
G1 X110.34 Y147.772 E22.41696
G1 X109.504 Y148.112 E22.44698
G1 X108.641 Y148.378 E22.47702
G1 X107.758 Y148.566 E22.50704
G1 X106.422 Y148.699 E22.5517
G1 X106.054 Y148.709 E22.56394
G1 X105.52 Y148.715 E22.58171
G1 X81.873 Y148.715 E23.36821
G1 X81.208 Y148.705 E23.39033
G1 X80.306 Y148.651 E23.42038
G1 X79.413 Y148.518 E23.45041
G1 X78.535 Y148.307 E23.48045
G1 X77.679 Y148.018 E23.5105
G1 X76.852 Y147.655 E23.54053
G1 X76.061 Y147.221 E23.57054
G1 X75.637 Y146.949 E23.5873
G1 X75.578 Y146.909 E23.58967
G1 X75.016 Y146.499 E23.61281
G1 X74.924 Y146.427 E23.61669
G1 X74.238 Y145.839 E23.64674
G1 X73.607 Y145.193 E23.67678
G1 X73.035 Y144.494 E23.70682
G1 X72.527 Y143.747 E23.73686
G1 X72.088 Y142.958 E23.7669
G1 X71.72 Y142.133 E23.79694
G1 X71.427 Y141.279 E23.82697
G1 X71.21 Y140.402 E23.85702
G1 X71.071 Y139.51 E23.88705
G1 X71.016 Y138.738 E23.91279
G1 X71.006 Y138.359 E23.9254
G1 X71 Y137.796 E23.94412
G1 X71.001 Y116.776 E24.64325
G1 X71.011 Y116.078 E24.66647
G1 X71.053 Y115.284 E24.69292
G1 X71.068 Y115.122 E24.69833
